X:1
T:Amarilli mijn schoone
T:Amarilli mijn schoone
T:Anonymous
C:Anonymous
%%score [ 1 [ 2 3 ] 4 ]
L:1/8
Q:1/4=120
M:2/2
K:F
V:1 treble nm="Soprano" snm="S"
V:2 treble-8 nm="Tenor 1" snm="T 1"
V:3 treble-8 nm="Tenor 2" snm="T 2"
V:4 bass nm="Bass" snm="B"
V:1
 d2 A2 B4 | A2 G2 A4 | A8 | z2 d2 c2 A2 | c2 B2 A4 | d6 cc | c8 | B4 d4- | d2 A2 A2 AA |1 A8 | %10
w: A- ma- ril-|li, mijn schoo-|ne,|ge- looft ghy|dat de liefd'|die'k u be-|too-|ne, niet|_ in mijn hert zou|woo-|
 G8 :| A8 |2 G8 |: B2 AG A4 | z FFG A2 F2 | G8- | G4 ^F4 | B3 G A2 ^FF | G4 A4 | d6 cB | %20
w: ne,|woo-|ne,|ge- loof het vrij,|en vreest ghy on- der-|wy-|* len,|neem een van dees' myn|pij- len,|o- pen dees'|
 A2 A2 z FFG | A2 F2 E4 | D2 ^FF G4 | ^F2 AA =B4 | c2 ^cc d4- | d2 cB A4 |1 G8 :|2 D2 ^FF G4 || %28
w: bor- ste, ghy vint in't|hert ge- schre-|ven: A- ma- ril-|li, A- ma- ril-|li, A- ma- ril-|* li mijn le-|ven.|ven: A- ma- ril-|
 ^F2 AA =B4 | c4 ^c2 c2 | d6 cB | A8 | =B8 |] %33
w: li, A- ma- ril-|li, A- ma-|ril- li, mijn|le-|ven.|
V:2
 g2 a2 g4 | ^f2 g2 f4 | ^f8 | z2 f2 f3 f | f2 d2 d4 | f6 _ee | c2 d_e f4 | f8 | f3 e d2 ee |1 d8 | %10
w: A- ma- ril-|li, mijn schoo-|ne,|ge- looft ghy|dat de liefd'|die'k u be-|too _ _ _|ne,|niet in mijn hert zou|woo-|
 d8 :| d2 ^c2 d4 |2 =B8 |: g2 ^fg f4 | z ddc c2 d2 | B6 c2 | d4 d4 | d3 d d2 dd | B4 A4 | f6 ee | %20
w: ne,|woo- * *|ne,|ge- loof het vrij,|en vreest ghy on- der|wy- *|* len,|neem een van dees' myn|pij- len,|o- pen dees'|
 d2 d2 z dfe | d2 d2 ^c4 | d2 dd d4 | d2 dd d4 | c2 ee d4 | d2 d2 d4 |1 =B8 :|2 d2 dd d4 || %28
w: bor- ste, ghy vint in't|hert ge- schre-|ven: A- ma- ril-|li, A- ma- ril-|li, A- ma- ril-|li, mijn le-|ven.|ven: A- ma- ril-|
 d2 dd d4 | c4 e2 e2 | d4 d2 d2 | d8 | d8 |] %33
w: li, A- ma- ril-|li, A- ma-|ril- li, mijn|le-|ven.|
V:3
 d2 d2 d4 | d2 B2 d4 | d8 | z2 F2 A2 c2 | c2 G2 A4 | B6 GG | A8 | B8 | A3 G F2 EE |1 ^F8 | G8 :| %11
w: A- ma- ril-|li, mijn schoo-|ne,|ge- looft ghy|dat de liefd'|die'k u be-|too-|ne,|niet in mijn hert zou|woo-|ne,|
 ^F8 |2 G8 |: d2 dB d4 | z AAG F2 A2 | G8 | A8 | G3 G ^F2 AA | G4 ^F4 | B6 AG | %20
w: woo-|ne,|ge- loof het vrij,|en vreest ghy on- der-|wy-|len,|neem een van dees' myn|pij- len,|o- pen dees'|
"^#""^#" F2 F2 z AAG | F2 A2 A4 | ^F2 AA B4 | A2 ^FF G4 | E2 AA A4 | G2 G2 ^F4 |1 G8 :|2 %27
w: bor- ste, ghy vint in't|hert ge- schre-|ven: A- ma- ril-|li, A- ma- ril-|li, A- ma- ril-|li, mijn le-|ven.|
 ^F2 AA B4 || A2 ^FF G4- | G2 E2 EE A2- | A2 A2 G4 | ^F8 | G8 |] %33
w: ven: A- ma- ril-|li, A- ma- ril-|* li, A- ma- ril-|* li, mijn|le-|ven.|
V:4
 G,2 ^F,2 G,4 | D,2 _E,2 D,4 | D,8 | z2 B,,2 F,3 F, | F,2 G,2 D,4 | B,,6 _E,E, | F,8 | B,,8 | %8
w: A- ma ril-|li, mijn schoo-|ne,|ge- looft ghy|dat de liefd'|die'k u be-|too-|ne,|
 D,6 ^C,2 |1 D,2 D,D, D,4 | G,,8 :| D,2 A,,A,, D,4 |2 G,,8 |: G,2 D,_E, D,4 | z D,D,E, F,2 D,2 | %15
w: niet in|mijn hert zou woo-|ne,|mijn hert zou woo-|ne,|ge- loof het vrij,|en vreest ghy on- der-|
 _E,8 | D,8 | G,,3 G,, D,2 D,D, | G,,4 D,4 | B,,6 C,C, | D,2 D,2 z D,D,E, | F,2 D,2 A,,4 | %22
w: wy-|len,|neem een van dees' myn|pij- len,|o- pen dees'|bor- ste, ghy vint in't|hert ge- schre-|
 D,2 D,D, G,4 | D,2 D,D, G,,4 | C,2 A,,A,, D,4 | G,,2 G,,2 D,4 |1 G,,8 :|2 D,4 z2 G,,G,, || %28
w: ven: A- ma- ril-|li, A- ma- ril-|li, A ma- ril-|li, mijn le-|ven.|ven: A- ma-|
 D,4 G,,2 G,,G,, | C,4 A,,2 A,,A,, | D,4 G,,2 G,,2 | D,8 | G,,8 |] %33
w: ril- li, A- ma-|ril- li, A- ma-|ril- li, mijn|le-|ven.|

